X: 10
M: 6/8
L: 1/8
K: G
V: 1
|:\
d2g f/g/af | d^cd e3 | g2f e2d | ^cde A3 |\
d2g f/g/af | d^cd e3 | g2f e2d | ed^c "_Da Capo"d3 |]
V: 2 clef=bass middle=d
|:\
d3 z2z |  G3 g3 | e2e d2f | e2d c2B |
c2d G3 :| B2e d2d | B2B A2^c | B2A
b2a g2f | g2a "_Da Capo"d3 |]


